T:春日影
L:1/8
M:6/8
Q:1/4=97
K:C
%%barnumbers 2
e2 d c2 d | e>f e d3 | e2 d c2 d | e>f e d z c/d/ |
[eG]ed [fcG]ed | [dG]dc [fB]ed | [dE]2 c/d/ [ecG]2 c | [BG]GD [ec]gc' |
[bfc]2 c' b2 c' | [bd]/a/ g2 [gB]df | [fc]2 e [ec]2 G | fed [ec]2 g |
[cG]3 [BG]2 c | [dG]c z [cG]gc | [fc]2 e [dB]2 c | [cF]2 D [EC] z2 |]